assets/1. 1-F/Closed mailbox with lowered flag/Color/Closed.Mailbox.With.Lowered.Flag-color.svg

<svg width="100%" height="100%" viewBox="0 0 32 32" fill="none" xmlns="http://www.w3.org/2000/svg">
<path d="M13.1862 23.9305H17.8369V28.8869H13.1862V23.9305Z" fill="url(#paint0_linear_18_22011)"/>
<path d="M13.1862 23.9305H17.8369V28.8869H13.1862V23.9305Z" fill="url(#paint1_linear_18_22011)"/>
<path d="M13.1862 23.9305H17.8369V28.8869H13.1862V23.9305Z" fill="url(#paint2_radial_18_22011)"/>
<g filter="url(#filter0_i_18_22011)">
<path d="M4.04352 13.5476C4.04352 10.51 6.50595 8.04761 9.54352 8.04761H22.4565C25.4941 8.04761 27.9565 10.51 27.9565 13.5476V22.9306C27.9565 23.4829 27.5088 23.9306 26.9565 23.9306H5.04352C4.49123 23.9306 4.04352 23.4829 4.04352 22.9306V13.5476Z" fill="url(#paint3_linear_18_22011)"/>
</g>
<g filter="url(#filter1_f_18_22011)">
<path d="M5.30309 23.4375H12.9528C13.4603 23.4375 13.8716 23.0186 13.8716 22.5019V13.7233C13.8716 10.9874 11.853 8.58707 9.12793 8.58709C6.55631 8.42392 4.38422 10.5019 4.38422 13.7233V22.5019C4.38422 23.0186 4.79559 23.4375 5.30309 23.4375Z" fill="url(#paint4_linear_18_22011)"/>
<path d="M5.30309 23.5625H12.9528C13.5314 23.5625 13.9966 23.0855 13.9966 22.5019V13.7233C13.9966 10.9327 11.9363 8.46439 9.13189 8.46209C6.47751 8.29595 4.25922 10.4445 4.25922 13.7233V22.5019C4.25922 23.0855 4.72444 23.5625 5.30309 23.5625Z" stroke="url(#paint5_linear_18_22011)" stroke-width="0.25"/>
</g>
<g filter="url(#filter2_i_18_22011)">
<rect x="6.62866" y="19.0144" width="5.70466" height="1.93105" rx="0.965524" fill="url(#paint6_linear_18_22011)"/>
</g>
<g filter="url(#filter3_f_18_22011)">
<rect x="7.11383" y="20.0737" width="4.48438" height="0.363831" rx="0.181915" fill="url(#paint7_linear_18_22011)"/>
</g>
<g filter="url(#filter4_i_18_22011)">
<path d="M28.6875 13.7456L28.6875 19.1253C28.6875 19.5671 28.3771 19.9253 27.9941 19.9253L25.2909 19.9253C24.9079 19.9253 24.5975 19.5671 24.5975 19.1253L24.5975 13.7456L28.6875 13.7456Z" fill="url(#paint8_linear_18_22011)"/>
</g>
<g filter="url(#filter5_f_18_22011)">
<path d="M23.84 13.7456L23.84 19.1253C23.84 19.5671 23.5296 19.9253 23.1466 19.9253L20.4434 19.9253C20.0604 19.9253 19.75 19.5671 19.75 19.1253L19.75 13.7456L23.84 13.7456Z" fill="#4B81D5"/>
</g>
<path d="M28.6207 12.2373C29.2551 12.2373 29.7693 12.7516 29.7693 13.386C29.7693 14.0204 29.2551 14.5347 28.6207 14.5347L19.0037 14.5347L19.0037 12.2373L28.6207 12.2373Z" fill="url(#paint9_linear_18_22011)"/>
<path d="M28.6207 12.2373C29.2551 12.2373 29.7693 12.7516 29.7693 13.386C29.7693 14.0204 29.2551 14.5347 28.6207 14.5347L19.0037 14.5347L19.0037 12.2373L28.6207 12.2373Z" fill="url(#paint10_linear_18_22011)"/>
<path d="M28.6207 12.2373C29.2551 12.2373 29.7693 12.7516 29.7693 13.386C29.7693 14.0204 29.2551 14.5347 28.6207 14.5347L19.0037 14.5347L19.0037 12.2373L28.6207 12.2373Z" fill="url(#paint11_radial_18_22011)"/>
<g filter="url(#filter6_f_18_22011)">
<rect x="19.75" y="13.1484" width="8.51562" height="0.318726" rx="0.159363" fill="#AEA4BF"/>
</g>
<g filter="url(#filter7_f_18_22011)">
<ellipse cx="16.4377" cy="13.9172" rx="1.57236" ry="2.40625" fill="#264FC5"/>
</g>
<circle cx="17.9178" cy="13.386" r="2.40625" fill="url(#paint12_radial_18_22011)"/>
<circle cx="17.9178" cy="13.386" r="2.40625" fill="url(#paint13_radial_18_22011)"/>
<circle cx="17.9178" cy="13.386" r="2.40625" fill="url(#paint14_radial_18_22011)"/>
<defs>
<filter id="filter0_i_18_22011" x="4.04352" y="7.64761" width="23.913" height="16.2831" filterUnits="userSpaceOnUse" color-interpolation-filters="sRGB">
<feFlood flood-opacity="0" result="BackgroundImageFix"/>
<feBlend mode="normal" in="SourceGraphic" in2="BackgroundImageFix" result="shape"/>
<feColorMatrix in="SourceAlpha" type="matrix" values="0 0 0 0 0 0 0 0 0 0 0 0 0 0 0 0 0 0 127 0" result="hardAlpha"/>
<feOffset dy="-0.4"/>
<feGaussianBlur stdDeviation="0.375"/>
<feComposite in2="hardAlpha" operator="arithmetic" k2="-1" k3="1"/>
<feColorMatrix type="matrix" values="0 0 0 0 0.262745 0 0 0 0 0.356863 0 0 0 0 1 0 0 0 1 0"/>
<feBlend mode="normal" in2="shape" result="effect1_innerShadow_18_22011"/>
</filter>
<filter id="filter1_f_18_22011" x="3.63422" y="7.828" width="10.9874" height="16.3595" filterUnits="userSpaceOnUse" color-interpolation-filters="sRGB">
<feFlood flood-opacity="0" result="BackgroundImageFix"/>
<feBlend mode="normal" in="SourceGraphic" in2="BackgroundImageFix" result="shape"/>
<feGaussianBlur stdDeviation="0.25" result="effect1_foregroundBlur_18_22011"/>
</filter>
<filter id="filter2_i_18_22011" x="6.12866" y="19.0144" width="6.20465" height="2.43103" filterUnits="userSpaceOnUse" color-interpolation-filters="sRGB">
<feFlood flood-opacity="0" result="BackgroundImageFix"/>
<feBlend mode="normal" in="SourceGraphic" in2="BackgroundImageFix" result="shape"/>
<feColorMatrix in="SourceAlpha" type="matrix" values="0 0 0 0 0 0 0 0 0 0 0 0 0 0 0 0 0 0 127 0" result="hardAlpha"/>
<feOffset dx="-0.5" dy="0.5"/>
<feGaussianBlur stdDeviation="0.375"/>
<feComposite in2="hardAlpha" operator="arithmetic" k2="-1" k3="1"/>
<feColorMatrix type="matrix" values="0 0 0 0 0.117647 0 0 0 0 0.321569 0 0 0 0 0.823529 0 0 0 1 0"/>
<feBlend mode="normal" in2="shape" result="effect1_innerShadow_18_22011"/>
</filter>
<filter id="filter3_f_18_22011" x="6.61383" y="19.5737" width="5.48438" height="1.36377" filterUnits="userSpaceOnUse" color-interpolation-filters="sRGB">
<feFlood flood-opacity="0" result="BackgroundImageFix"/>
<feBlend mode="normal" in="SourceGraphic" in2="BackgroundImageFix" result="shape"/>
<feGaussianBlur stdDeviation="0.25" result="effect1_foregroundBlur_18_22011"/>
</filter>
<filter id="filter4_i_18_22011" x="24.5975" y="13.4956" width="4.49003" height="6.42969" filterUnits="userSpaceOnUse" color-interpolation-filters="sRGB">
<feFlood flood-opacity="0" result="BackgroundImageFix"/>
<feBlend mode="normal" in="SourceGraphic" in2="BackgroundImageFix" result="shape"/>
<feColorMatrix in="SourceAlpha" type="matrix" values="0 0 0 0 0 0 0 0 0 0 0 0 0 0 0 0 0 0 127 0" result="hardAlpha"/>
<feOffset dx="0.4" dy="-0.25"/>
<feGaussianBlur stdDeviation="0.5"/>
<feComposite in2="hardAlpha" operator="arithmetic" k2="-1" k3="1"/>
<feColorMatrix type="matrix" values="0 0 0 0 0.858824 0 0 0 0 0.203922 0 0 0 0 0.2 0 0 0 1 0"/>
<feBlend mode="normal" in2="shape" result="effect1_innerShadow_18_22011"/>
</filter>
<filter id="filter5_f_18_22011" x="16.75" y="10.7456" width="10.09" height="12.1797" filterUnits="userSpaceOnUse" color-interpolation-filters="sRGB">
<feFlood flood-opacity="0" result="BackgroundImageFix"/>
<feBlend mode="normal" in="SourceGraphic" in2="BackgroundImageFix" result="shape"/>
<feGaussianBlur stdDeviation="1.5" result="effect1_foregroundBlur_18_22011"/>
</filter>
<filter id="filter6_f_18_22011" x="19.25" y="12.6484" width="9.51562" height="1.31873" filterUnits="userSpaceOnUse" color-interpolation-filters="sRGB">
<feFlood flood-opacity="0" result="BackgroundImageFix"/>
<feBlend mode="normal" in="SourceGraphic" in2="BackgroundImageFix" result="shape"/>
<feGaussianBlur stdDeviation="0.25" result="effect1_foregroundBlur_18_22011"/>
</filter>
<filter id="filter7_f_18_22011" x="13.6154" y="10.261" width="5.64471" height="7.3125" filterUnits="userSpaceOnUse" color-interpolation-filters="sRGB">
<feFlood flood-opacity="0" result="BackgroundImageFix"/>
<feBlend mode="normal" in="SourceGraphic" in2="BackgroundImageFix" result="shape"/>
<feGaussianBlur stdDeviation="0.625" result="effect1_foregroundBlur_18_22011"/>
</filter>
<linearGradient id="paint0_linear_18_22011" x1="16.8217" y1="28.8869" x2="13.1862" y2="28.8869" gradientUnits="userSpaceOnUse">
<stop stop-color="#8F616C"/>
<stop offset="0.419865" stop-color="#7D4261"/>
<stop offset="0.77392" stop-color="#5E3A43"/>
</linearGradient>
<linearGradient id="paint1_linear_18_22011" x1="18.103" y1="28.8869" x2="17.353" y2="28.8869" gradientUnits="userSpaceOnUse">
<stop stop-color="#855A5D"/>
<stop offset="1" stop-color="#855A5D" stop-opacity="0"/>
</linearGradient>
<radialGradient id="paint2_radial_18_22011" cx="0" cy="0" r="1" gradientUnits="userSpaceOnUse" gradientTransform="translate(15.5115 28.8869) rotate(-90) scale(4.95639 5.62268)">
<stop offset="0.771623" stop-color="#632F53" stop-opacity="0"/>
<stop offset="1" stop-color="#5A3A46"/>
</radialGradient>
<linearGradient id="paint3_linear_18_22011" x1="20.5248" y1="23.9306" x2="20.5248" y2="10.2501" gradientUnits="userSpaceOnUse">
<stop offset="0.742721" stop-color="#5097DA"/>
<stop offset="1" stop-color="#5D98DA"/>
</linearGradient>
<linearGradient id="paint4_linear_18_22011" x1="9.12793" y1="8.58707" x2="9.12793" y2="23.4375" gradientUnits="userSpaceOnUse">
<stop stop-color="#5689D3"/>
<stop offset="1" stop-color="#5686D8"/>
</linearGradient>
<linearGradient id="paint5_linear_18_22011" x1="15.0938" y1="18.6506" x2="8.46875" y2="18.6506" gradientUnits="userSpaceOnUse">
<stop offset="0.221698" stop-color="#3B7BDE"/>
<stop offset="1" stop-color="#3C84D5" stop-opacity="0"/>
</linearGradient>
<linearGradient id="paint6_linear_18_22011" x1="9.48099" y1="19.0144" x2="9.48099" y2="20.9455" gradientUnits="userSpaceOnUse">
<stop stop-color="#3B6BF1"/>
<stop offset="1" stop-color="#1872E0"/>
</linearGradient>
<linearGradient id="paint7_linear_18_22011" x1="7.11383" y1="20.2556" x2="10.9155" y2="20.2556" gradientUnits="userSpaceOnUse">
<stop stop-color="#568FF7"/>
<stop offset="1" stop-color="#568FF7" stop-opacity="0"/>
</linearGradient>
<linearGradient id="paint8_linear_18_22011" x1="28.6875" y1="16.8354" x2="27" y2="16.8354" gradientUnits="userSpaceOnUse">
<stop stop-color="#FF8E4E"/>
<stop offset="1" stop-color="#F96941"/>
</linearGradient>
<linearGradient id="paint9_linear_18_22011" x1="25.4375" y1="14.5347" x2="25.4375" y2="12.9376" gradientUnits="userSpaceOnUse">
<stop stop-color="#926BC9"/>
<stop offset="1" stop-color="#A6A4AF"/>
</linearGradient>
<linearGradient id="paint10_linear_18_22011" x1="29.7693" y1="13.386" x2="28.625" y2="13.386" gradientUnits="userSpaceOnUse">
<stop stop-color="#BAB9BF"/>
<stop offset="1" stop-color="#BAB9BF" stop-opacity="0"/>
</linearGradient>
<radialGradient id="paint11_radial_18_22011" cx="0" cy="0" r="1" gradientUnits="userSpaceOnUse" gradientTransform="translate(29.625 13.0313) scale(0.9375 0.507812)">
<stop stop-color="#CFCBD8"/>
<stop offset="1" stop-color="#CFCBD8" stop-opacity="0"/>
</radialGradient>
<radialGradient id="paint12_radial_18_22011" cx="0" cy="0" r="1" gradientUnits="userSpaceOnUse" gradientTransform="translate(17.1875 15.7922) rotate(-70.371) scale(3.62801 4.37707)">
<stop stop-color="#9571C7"/>
<stop offset="1" stop-color="#B0B0B7"/>
</radialGradient>
<radialGradient id="paint13_radial_18_22011" cx="0" cy="0" r="1" gradientUnits="userSpaceOnUse" gradientTransform="translate(19.0937 13.386) rotate(180) scale(3.58221)">
<stop offset="0.64555" stop-color="#948DA4" stop-opacity="0"/>
<stop offset="1" stop-color="#636697"/>
</radialGradient>
<radialGradient id="paint14_radial_18_22011" cx="0" cy="0" r="1" gradientUnits="userSpaceOnUse" gradientTransform="translate(19.1719 12.4688) rotate(-23.1458) scale(2.22606 1.67626)">
<stop offset="0.246982" stop-color="#D0CCDA"/>
<stop offset="1" stop-color="#B6B6BD" stop-opacity="0"/>
</radialGradient>
</defs>
</svg>

<svg width="100%" height="100%" viewBox="0 0 32 32" xmlns="http://www.w3.org/2000/svg"><path fill="url(#a)" d="M13.186 23.93h4.65v4.957h-4.65z"/><path fill="url(#b)" d="M13.186 23.93h4.65v4.957h-4.65z"/><path fill="url(#c)" d="M13.186 23.93h4.65v4.957h-4.65z"/><g filter="url(#d)"><path fill="url(#e)" d="M4.044 13.548a5.5 5.5 0 0 1 5.5-5.5h12.912a5.5 5.5 0 0 1 5.5 5.5v9.383a1 1 0 0 1-1 1H5.044a1 1 0 0 1-1-1z"/></g><g filter="url(#f)"><path fill="url(#g)" d="M5.303 23.438h7.65a.927.927 0 0 0 .919-.936v-8.779c0-2.736-2.019-5.136-4.744-5.136-2.572-.163-4.744 1.915-4.744 5.136v8.779c0 .517.412.936.92.936"/><path stroke="url(#h)" stroke-width=".25" d="M5.303 23.563h7.65c.578 0 1.044-.477 1.044-1.061v-8.779c0-2.79-2.06-5.259-4.865-5.26-2.654-.167-4.873 1.982-4.873 5.26v8.779c0 .584.465 1.06 1.044 1.06Z"/></g><g filter="url(#i)"><rect width="5.705" height="1.931" x="6.629" y="19.014" fill="url(#j)" rx=".966"/></g><g filter="url(#k)"><rect width="4.484" height=".364" x="7.114" y="20.074" fill="url(#l)" rx=".182"/></g><g filter="url(#m)"><path fill="url(#n)" d="M28.688 13.746v5.38c0 .441-.31.8-.694.8h-2.703c-.383 0-.694-.359-.694-.8v-5.38z"/></g><g filter="url(#o)"><path fill="#4B81D5" d="M23.84 13.746v5.38c0 .441-.31.8-.693.8h-2.704c-.383 0-.693-.359-.693-.8v-5.38z"/></g><path fill="url(#p)" d="M28.62 12.237a1.149 1.149 0 0 1 0 2.298h-9.616v-2.298z"/><path fill="url(#q)" d="M28.62 12.237a1.149 1.149 0 0 1 0 2.298h-9.616v-2.298z"/><path fill="url(#r)" d="M28.62 12.237a1.149 1.149 0 0 1 0 2.298h-9.616v-2.298z"/><g filter="url(#s)"><rect width="8.516" height=".319" x="19.75" y="13.148" fill="#AEA4BF" rx=".159"/></g><g filter="url(#t)"><ellipse cx="16.438" cy="13.917" fill="#264FC5" rx="1.572" ry="2.406"/></g><circle cx="17.918" cy="13.386" r="2.406" fill="url(#u)"/><circle cx="17.918" cy="13.386" r="2.406" fill="url(#v)"/><circle cx="17.918" cy="13.386" r="2.406" fill="url(#w)"/><defs><linearGradient id="a" x1="16.822" x2="13.186" y1="28.887" y2="28.887" gradientUnits="userSpaceOnUse"><stop stop-color="#8F616C"/><stop offset=".42" stop-color="#7D4261"/><stop offset=".774" stop-color="#5E3A43"/></linearGradient><linearGradient id="b" x1="18.103" x2="17.353" y1="28.887" y2="28.887" gradientUnits="userSpaceOnUse"><stop stop-color="#855A5D"/><stop offset="1" stop-color="#855A5D" stop-opacity="0"/></linearGradient><linearGradient id="e" x1="20.525" x2="20.525" y1="23.931" y2="10.25" gradientUnits="userSpaceOnUse"><stop offset=".743" stop-color="#5097DA"/><stop offset="1" stop-color="#5D98DA"/></linearGradient><linearGradient id="g" x1="9.128" x2="9.128" y1="8.587" y2="23.438" gradientUnits="userSpaceOnUse"><stop stop-color="#5689D3"/><stop offset="1" stop-color="#5686D8"/></linearGradient><linearGradient id="h" x1="15.094" x2="8.469" y1="18.651" y2="18.651" gradientUnits="userSpaceOnUse"><stop offset=".222" stop-color="#3B7BDE"/><stop offset="1" stop-color="#3C84D5" stop-opacity="0"/></linearGradient><linearGradient id="j" x1="9.481" x2="9.481" y1="19.014" y2="20.945" gradientUnits="userSpaceOnUse"><stop stop-color="#3B6BF1"/><stop offset="1" stop-color="#1872E0"/></linearGradient><linearGradient id="l" x1="7.114" x2="10.915" y1="20.256" y2="20.256" gradientUnits="userSpaceOnUse"><stop stop-color="#568FF7"/><stop offset="1" stop-color="#568FF7" stop-opacity="0"/></linearGradient><linearGradient id="n" x1="28.688" x2="27" y1="16.835" y2="16.835" gradientUnits="userSpaceOnUse"><stop stop-color="#FF8E4E"/><stop offset="1" stop-color="#F96941"/></linearGradient><linearGradient id="p" x1="25.438" x2="25.438" y1="14.535" y2="12.938" gradientUnits="userSpaceOnUse"><stop stop-color="#926BC9"/><stop offset="1" stop-color="#A6A4AF"/></linearGradient><linearGradient id="q" x1="29.769" x2="28.625" y1="13.386" y2="13.386" gradientUnits="userSpaceOnUse"><stop stop-color="#BAB9BF"/><stop offset="1" stop-color="#BAB9BF" stop-opacity="0"/></linearGradient><filter id="d" width="23.913" height="16.283" x="4.044" y="7.648" color-interpolation-filters="sRGB" filterUnits="userSpaceOnUse"><feFlood flood-opacity="0" result="BackgroundImageFix"/><feBlend in="SourceGraphic" in2="BackgroundImageFix" result="shape"/><feColorMatrix in="SourceAlpha" result="hardAlpha" values="0 0 0 0 0 0 0 0 0 0 0 0 0 0 0 0 0 0 127 0"/><feOffset dy="-.4"/><feGaussianBlur stdDeviation=".375"/><feComposite in2="hardAlpha" k2="-1" k3="1" operator="arithmetic"/><feColorMatrix values="0 0 0 0 0.262745 0 0 0 0 0.356863 0 0 0 0 1 0 0 0 1 0"/><feBlend in2="shape" result="effect1_innerShadow_18_22011"/></filter><filter id="f" width="10.987" height="16.36" x="3.634" y="7.828" color-interpolation-filters="sRGB" filterUnits="userSpaceOnUse"><feFlood flood-opacity="0" result="BackgroundImageFix"/><feBlend in="SourceGraphic" in2="BackgroundImageFix" result="shape"/><feGaussianBlur result="effect1_foregroundBlur_18_22011" stdDeviation=".25"/></filter><filter id="i" width="6.205" height="2.431" x="6.129" y="19.014" color-interpolation-filters="sRGB" filterUnits="userSpaceOnUse"><feFlood flood-opacity="0" result="BackgroundImageFix"/><feBlend in="SourceGraphic" in2="BackgroundImageFix" result="shape"/><feColorMatrix in="SourceAlpha" result="hardAlpha" values="0 0 0 0 0 0 0 0 0 0 0 0 0 0 0 0 0 0 127 0"/><feOffset dx="-.5" dy=".5"/><feGaussianBlur stdDeviation=".375"/><feComposite in2="hardAlpha" k2="-1" k3="1" operator="arithmetic"/><feColorMatrix values="0 0 0 0 0.117647 0 0 0 0 0.321569 0 0 0 0 0.823529 0 0 0 1 0"/><feBlend in2="shape" result="effect1_innerShadow_18_22011"/></filter><filter id="k" width="5.484" height="1.364" x="6.614" y="19.574" color-interpolation-filters="sRGB" filterUnits="userSpaceOnUse"><feFlood flood-opacity="0" result="BackgroundImageFix"/><feBlend in="SourceGraphic" in2="BackgroundImageFix" result="shape"/><feGaussianBlur result="effect1_foregroundBlur_18_22011" stdDeviation=".25"/></filter><filter id="m" width="4.49" height="6.43" x="24.598" y="13.496" color-interpolation-filters="sRGB" filterUnits="userSpaceOnUse"><feFlood flood-opacity="0" result="BackgroundImageFix"/><feBlend in="SourceGraphic" in2="BackgroundImageFix" result="shape"/><feColorMatrix in="SourceAlpha" result="hardAlpha" values="0 0 0 0 0 0 0 0 0 0 0 0 0 0 0 0 0 0 127 0"/><feOffset dx=".4" dy="-.25"/><feGaussianBlur stdDeviation=".5"/><feComposite in2="hardAlpha" k2="-1" k3="1" operator="arithmetic"/><feColorMatrix values="0 0 0 0 0.858824 0 0 0 0 0.203922 0 0 0 0 0.2 0 0 0 1 0"/><feBlend in2="shape" result="effect1_innerShadow_18_22011"/></filter><filter id="o" width="10.09" height="12.18" x="16.75" y="10.746" color-interpolation-filters="sRGB" filterUnits="userSpaceOnUse"><feFlood flood-opacity="0" result="BackgroundImageFix"/><feBlend in="SourceGraphic" in2="BackgroundImageFix" result="shape"/><feGaussianBlur result="effect1_foregroundBlur_18_22011" stdDeviation="1.5"/></filter><filter id="s" width="9.516" height="1.319" x="19.25" y="12.648" color-interpolation-filters="sRGB" filterUnits="userSpaceOnUse"><feFlood flood-opacity="0" result="BackgroundImageFix"/><feBlend in="SourceGraphic" in2="BackgroundImageFix" result="shape"/><feGaussianBlur result="effect1_foregroundBlur_18_22011" stdDeviation=".25"/></filter><filter id="t" width="5.645" height="7.313" x="13.615" y="10.261" color-interpolation-filters="sRGB" filterUnits="userSpaceOnUse"><feFlood flood-opacity="0" result="BackgroundImageFix"/><feBlend in="SourceGraphic" in2="BackgroundImageFix" result="shape"/><feGaussianBlur result="effect1_foregroundBlur_18_22011" stdDeviation=".625"/></filter><radialGradient id="c" cx="0" cy="0" r="1" gradientTransform="matrix(0 -4.95639 5.62268 0 15.511 28.887)" gradientUnits="userSpaceOnUse"><stop offset=".772" stop-color="#632F53" stop-opacity="0"/><stop offset="1" stop-color="#5A3A46"/></radialGradient><radialGradient id="r" cx="0" cy="0" r="1" gradientTransform="matrix(.9375 0 0 .50781 29.625 13.031)" gradientUnits="userSpaceOnUse"><stop stop-color="#CFCBD8"/><stop offset="1" stop-color="#CFCBD8" stop-opacity="0"/></radialGradient><radialGradient id="u" cx="0" cy="0" r="1" gradientTransform="rotate(-70.371 19.793 -4.293)scale(3.62801 4.37707)" gradientUnits="userSpaceOnUse"><stop stop-color="#9571C7"/><stop offset="1" stop-color="#B0B0B7"/></radialGradient><radialGradient id="v" cx="0" cy="0" r="1" gradientTransform="rotate(180 9.547 6.693)scale(3.58221)" gradientUnits="userSpaceOnUse"><stop offset=".646" stop-color="#948DA4" stop-opacity="0"/><stop offset="1" stop-color="#636697"/></radialGradient><radialGradient id="w" cx="0" cy="0" r="1" gradientTransform="matrix(2.04688 -.875 .6589 1.54133 19.172 12.469)" gradientUnits="userSpaceOnUse"><stop offset=".247" stop-color="#D0CCDA"/><stop offset="1" stop-color="#B6B6BD" stop-opacity="0"/></radialGradient></defs></svg>
